assets/img/an-pic/format-3.svg

<svg width="100" height="100" viewBox="0 0 100 100" fill="none" xmlns="http://www.w3.org/2000/svg">
<path d="M46.7971 83.9063C46.6243 84.5846 46.2315 85.1864 45.6802 85.6175C45.1288 86.0487 44.4501 86.2849 43.7502 86.2892C43.4983 86.2883 43.248 86.2488 43.008 86.172L31.2112 83.2423C30.2543 83.0006 29.3699 82.5316 28.633 81.8751L19.844 74.2188C19.5362 73.9521 19.284 73.6273 19.1017 73.2631C18.9194 72.8989 18.8107 72.5023 18.7816 72.0961C18.7526 71.6898 18.8039 71.2818 18.9326 70.8954C19.0612 70.5089 19.2647 70.1516 19.5315 69.8438C19.7982 69.5361 20.123 69.2838 20.4872 69.1015C20.8514 68.9193 21.248 68.8105 21.6543 68.7815C22.0605 68.7525 22.4685 68.8038 22.8549 68.9324C23.2414 69.0611 23.5987 69.2646 23.9065 69.5313L32.7346 77.1876L44.4924 80.1173C45.2966 80.3207 45.9887 80.8318 46.4197 81.5405C46.8508 82.2491 46.9863 83.0987 46.7971 83.9063ZM98.594 46.7188C98.3371 47.5056 97.9246 48.2326 97.381 48.8567C96.8375 49.4808 96.1739 49.9892 95.4299 50.3517L86.3284 54.922L80.508 61.7579H80.4299C80.4299 61.797 80.3909 61.797 80.3909 61.836H80.3518L65.9768 76.211C64.7855 77.3755 63.1895 78.0335 61.5237 78.047C61.0228 78.0423 60.5243 77.9768 60.0393 77.8517L37.383 72.2657C36.5276 72.0661 35.7271 71.6792 35.0393 71.1329L13.9455 54.6485L4.57054 49.961C3.07301 49.2021 1.93583 47.8824 1.40648 46.2892C1.15622 45.4998 1.06534 44.6685 1.1391 43.8437C1.21287 43.0189 1.44981 42.2169 1.83617 41.4845L11.4455 23.086C12.2049 21.6382 13.4983 20.543 15.0515 20.0325C16.6047 19.5221 18.2956 19.6365 19.7659 20.3517L28.5159 24.7267L47.5393 19.1798C48.9653 18.7912 50.4813 18.9014 51.8362 19.4923L64.7268 25.3517H71.133L80.2346 20.7813C81.6984 20.053 83.3893 19.9274 84.9447 20.4312C86.5002 20.9351 87.7962 22.0284 88.5549 23.4767L98.1643 41.8751C98.5518 42.6142 98.7892 43.4227 98.863 44.254C98.9367 45.0853 98.8453 45.923 98.594 46.7188ZM73.3205 60.0782L60.9768 51.0938L57.8127 53.4767C55.1031 55.4932 51.8154 56.5823 48.4377 56.5823C45.0601 56.5823 41.7724 55.4932 39.0627 53.4767L36.9534 51.8751C36.2327 51.3414 35.6362 50.658 35.2048 49.8718C34.7734 49.0857 34.5174 48.2154 34.4543 47.3209C34.3912 46.4264 34.5225 45.5288 34.8393 44.6899C35.156 43.851 35.6507 43.0906 36.2893 42.461L51.5627 27.1485L52.2659 26.5626L49.258 25.1954L30.2346 30.7423L19.6096 51.1329L38.9065 66.211L61.5237 71.8751L73.3205 60.0782ZM80.6252 51.9923L70.0002 31.6017H55.9768L40.7034 46.8751L42.8127 48.4767C44.443 49.676 46.4139 50.3229 48.4377 50.3229C50.4616 50.3229 52.4325 49.676 54.0627 48.4767L59.0627 44.7267C59.5959 44.3244 60.2439 44.1036 60.9118 44.0966C61.5796 44.0896 62.2321 44.2967 62.7737 44.6876L77.6174 55.4688L80.6252 51.9923Z" fill="#00A0E3"/>
</svg>

<svg width="100" height="100" fill="none" xmlns="http://www.w3.org/2000/svg"><path d="M46.797 83.906a3.164 3.164 0 01-3.047 2.383c-.252 0-.502-.04-.742-.117l-11.797-2.93a6.134 6.134 0 01-2.578-1.367l-8.789-7.656a3.101 3.101 0 114.063-4.688l8.828 7.657 11.757 2.93a3.164 3.164 0 012.305 3.788zM98.594 46.72a6.171 6.171 0 01-3.164 3.633l-9.102 4.57-5.82 6.836h-.078c0 .039-.04.039-.04.078h-.038L65.977 76.211a6.445 6.445 0 01-4.453 1.836 6.2 6.2 0 01-1.485-.195l-22.656-5.586a5.938 5.938 0 01-2.344-1.133L13.945 54.649 4.571 49.96a6.367 6.367 0 01-3.165-3.672 6.25 6.25 0 01.43-4.805l9.61-18.398a6.29 6.29 0 018.32-2.734l8.75 4.375 19.023-5.547a6.484 6.484 0 014.297.312l12.89 5.86h6.407l9.102-4.57a6.25 6.25 0 018.32 2.695l9.61 18.398a6.328 6.328 0 01.429 4.844zM73.321 60.08l-12.344-8.985-3.164 2.383a15.703 15.703 0 01-18.75 0l-2.11-1.602a6.21 6.21 0 01-.664-9.414l15.274-15.313.703-.585-3.008-1.368-19.023 5.547-10.625 20.39 19.297 15.079 22.617 5.664L73.32 60.078zm7.304-8.087L70 31.602H55.977L40.703 46.875l2.11 1.602a9.493 9.493 0 0011.25 0l5-3.75a3.124 3.124 0 013.71-.04L77.618 55.47l3.008-3.477z" fill="#00A0E3"/></svg>
